Numix-GalliumOS/scalable/actions/system-run-symbolic.svg

<svg xmlns="http://www.w3.org/2000/svg" viewBox="0 0 16 16" xmlns:xlink="http://www.w3.org/1999/xlink">
<defs/>
<g style="fill:#bebebe;display:block">
<path d="m 11.4375,0 c -0.132938,0 -0.25,0.1170605 -0.25,0.25 l 0,0.625 C 10.891082,0.9510977 10.631915,1.0978199 10.375,1.25 L 9.90625,0.75 C 9.812248,0.655998 9.6565025,0.655998 9.5625,0.75 L 8.75,1.5625 c -0.094002,0.094002 -0.094002,0.2497477 0,0.34375 L 9.25,2.375 C 9.0978202,2.6319154 8.9510982,2.8910813 8.875,3.1875 l -0.625,0 C 8.1170611,3.1875 8,3.3045605 8,3.4375 l 0,1.125 c 0,0.1329396 0.1170612,0.25 0.25,0.25 l 0.625,0 C 8.951098,5.1089178 9.0978204,5.3680846 9.25,5.625 l -0.5,0.46875 c -0.094002,0.094 -0.094002,0.249748 0,0.34375 L 9.5625,7.25 c 0.094003,0.094 0.2497475,0.094 0.34375,0 L 10.375,6.75 c 0.256915,0.15218 0.516082,0.298903 0.8125,0.375 l 0,0.625 c 0,0.13294 0.117062,0.25 0.25,0.25 l 1.125,0 c 0.132939,0 0.25,-0.11706 0.25,-0.25 l 0,-0.625 C 13.108918,7.0489 13.368084,6.90218 13.625,6.75 l 0.46875,0.5 c 0.094,0.094 0.249748,0.094 0.34375,0 L 15.25,6.4375 c 0.094,-0.094 0.094,-0.249748 0,-0.34375 L 14.75,5.625 c 0.15218,-0.2569154 0.298902,-0.5160822 0.375,-0.8125 l 0.625,0 c 0.13294,0 0.25,-0.1170604 0.25,-0.25 l 0,-1.125 c 0,-0.1329395 -0.117054,-0.25 -0.25,-0.25 l -0.625,0 C 15.048902,2.8910813 14.90218,2.6319154 14.75,2.375 l 0.5,-0.46875 c 0.094,-0.094002 0.094,-0.2497475 0,-0.34375 L 14.4375,0.75 c -0.094,-0.094002 -0.249748,-0.094002 -0.34375,0 L 13.625,1.25 C 13.368084,1.0978199 13.108918,0.951098 12.8125,0.875 l 0,-0.625 C 12.8125,0.1170606 12.69544,0 12.5625,0 l -1.125,0 z M 12,3 c 0.552285,0 1,0.4477152 1,1 0,0.5522848 -0.447715,1 -1,1 -0.552285,0 -1,-0.4477152 -1,-1 0,-0.5522848 0.447715,-1 1,-1 z"/>
<path d="m 3.4375,4 c -0.1329384,0 -0.25,0.1170605 -0.25,0.25 l 0,0.625 C 2.8910824,4.9510977 2.6319154,5.0978199 2.375,5.25 L 1.90625,4.75 C 1.812248,4.655998 1.6565025,4.655998 1.5625,4.75 L 0.75,5.5625 c -0.094002,0.094002 -0.094002,0.2497477 0,0.34375 L 1.25,6.375 C 1.0978202,6.6319154 0.9510982,6.8910813 0.875,7.1875 l -0.625,0 C 0.1170611,7.1875 0,7.3045605 0,7.4375 l 0,1.125 c 0,0.1329396 0.1170612,0.25 0.25,0.25 l 0.625,0 C 0.951098,9.1089178 1.0978204,9.3680846 1.25,9.625 l -0.5,0.46875 c -0.094002,0.094 -0.094002,0.249748 0,0.34375 L 1.5625,11.25 c 0.094003,0.094 0.2497475,0.094 0.34375,0 L 2.375,10.75 c 0.2569154,0.15218 0.5160824,0.298903 0.8125,0.375 l 0,0.625 c 0,0.13294 0.1170616,0.25 0.25,0.25 l 1.125,0 c 0.132939,0 0.25,-0.11706 0.25,-0.25 l 0,-0.625 C 5.108918,11.0489 5.368084,10.90218 5.625,10.75 l 0.46875,0.5 c 0.094,0.094 0.249748,0.094 0.34375,0 L 7.25,10.4375 c 0.094,-0.094 0.094,-0.249748 0,-0.34375 L 6.75,9.625 C 6.90218,9.3680846 7.048902,9.1089178 7.125,8.8125 l 0.625,0 C 7.88294,8.8125 8,8.6954396 8,8.5625 L 8,7.4375 C 8,7.3045605 7.882946,7.1875 7.75,7.1875 l -0.625,0 C 7.048902,6.8910813 6.90218,6.6319154 6.75,6.375 L 7.25,5.90625 C 7.344,5.812248 7.344,5.6565025 7.25,5.5625 L 6.4375,4.75 C 6.3435,4.655998 6.187752,4.655998 6.09375,4.75 L 5.625,5.25 C 5.368084,5.0978199 5.108918,4.951098 4.8125,4.875 l 0,-0.625 C 4.8125,4.1170606 4.69544,4 4.5625,4 L 3.4375,4 z M 4,7 C 4.5522847,7 5,7.4477152 5,8 5,8.5522848 4.5522847,9 4,9 3.4477153,9 3,8.5522848 3,8 3,7.4477152 3.4477153,7 4,7 z"/>
<path d="m 9.8504333,6.0110563 c -0.037072,-0.00227 -0.054951,0.01517 -0.09375,0.03125 l -1.34375,0.53125 c -0.1551958,0.06432 -0.2205346,0.282217 -0.15625,0.4375 l 0.28125,0.78125 c -0.3092475,0.232302 -0.523659,0.47919 -0.75,0.78125 l -0.78125,-0.34375 c -0.1551956,-0.06432 -0.3732154,0.032224 -0.4375,0.1875 l -0.53125,1.28125 c -0.064285,0.155281 0.032301,0.3419297 0.1875,0.4062497 l 0.78125,0.34375 c -0.053423,0.373724 -0.054498,0.741943 0,1.125 l -0.78125,0.34375 c -0.1551964,0.06432 -0.2205347,0.188467 -0.15625,0.34375 l 0.5,1.34375 c 0.064285,0.155282 0.2823037,0.220571 0.4375,0.15625 l 0.78125,-0.3125 c 0.2321762,0.309418 0.5106068,0.554784 0.8125,0.78125 l -0.34375,0.78125 c -0.064284,0.155284 0.00106,0.37318 0.15625,0.4375 l 1.34375,0.53125 c 0.1551974,0.06432 0.2794657,-0.03222 0.3437497,-0.1875 l 0.34375,-0.78125 c 0.373519,0.05345 0.742157,0.05452 1.125,0 l 0.3125,0.78125 c 0.06429,0.155283 0.282304,0.220571 0.4375,0.15625 l 1.28125,-0.5 c 0.155197,-0.06432 0.251785,-0.282217 0.1875,-0.4375 l -0.34375,-0.78125 c 0.309247,-0.232302 0.554909,-0.47919 0.78125,-0.78125 l 0.8125,0.3125 c 0.155199,0.06432 0.310715,-9.06e-4 0.375,-0.15625 l 0.5625,-1.34375 c 0.06429,-0.155284 -9.87e-4,-0.279431 -0.15625,-0.34375 l -0.8125,-0.34375 c 0.05342,-0.373724 0.05449,-0.741946 0,-1.125 l 0.78125,-0.34375 c 0.155197,-0.06432 0.251785,-0.1884667 0.1875,-0.3437497 l -0.5625,-1.34375 c -0.06428,-0.155282 -0.251053,-0.25182 -0.40625,-0.1875 l -0.78125,0.34375 c -0.232176,-0.309419 -0.479356,-0.554786 -0.78125,-0.78125 l 0.34375,-0.84375 c 0.06429,-0.155284 -0.03231,-0.310681 -0.1875,-0.375 l -1.28125,-0.53125 c -0.155197,-0.06432 -0.373215,0.032224 -0.4375,0.1875 l -0.3125,0.78125 c -0.373518,-0.05345 -0.742156,-0.05452 -1.125,0 l -0.34375,-0.78125 C 10.052218,6.1133441 9.9616493,6.0178746 9.8504333,6.0110563 z m 1.1562497,3 c 1.10457,0 2,0.8954305 2,1.9999997 0,1.10457 -0.89543,2 -2,2 -1.1045692,0 -1.9999997,-0.89543 -1.9999997,-2 0,-1.1045692 0.8954305,-1.9999997 1.9999997,-1.9999997 z"/>
</g>
</svg>

<svg xmlns="http://www.w3.org/2000/svg" viewBox="0 0 16 16">
 <g style="fill:#bebebe;display:block">
  <path d="m 11.438 0 c -0.133 0 -0.25 0.117 -0.25 0.25 l 0 0.625 c -0.296 0.076 -0.556 0.223 -0.813 0.375 l -0.469 -0.5 c -0.094 -0.094 -0.25 -0.094 -0.344 0 l -0.813 0.813 c -0.094 0.094 -0.094 0.25 0 0.344 l 0.5 0.469 c -0.152 0.257 -0.299 0.516 -0.375 0.813 l -0.625 0 c -0.133 0 -0.25 0.117 -0.25 0.25 l 0 1.125 c 0 0.133 0.117 0.25 0.25 0.25 l 0.625 0 c 0.076 0.296 0.223 0.556 0.375 0.813 l -0.5 0.469 c -0.094 0.094 -0.094 0.25 0 0.344 l 0.813 0.813 c 0.094 0.094 0.25 0.094 0.344 0 l 0.469 -0.5 c 0.257 0.152 0.516 0.299 0.813 0.375 l 0 0.625 c 0 0.133 0.117 0.25 0.25 0.25 l 1.125 0 c 0.133 0 0.25 -0.117 0.25 -0.25 l 0 -0.625 c 0.296 -0.076 0.556 -0.223 0.813 -0.375 l 0.469 0.5 c 0.094 0.094 0.25 0.094 0.344 0 l 0.813 -0.813 c 0.094 -0.094 0.094 -0.25 0 -0.344 l -0.5 -0.469 c 0.152 -0.257 0.299 -0.516 0.375 -0.813 l 0.625 0 c 0.133 0 0.25 -0.117 0.25 -0.25 l 0 -1.125 c 0 -0.133 -0.117 -0.25 -0.25 -0.25 l -0.625 0 c -0.076 -0.296 -0.223 -0.556 -0.375 -0.813 l 0.5 -0.469 c 0.094 -0.094 0.094 -0.25 0 -0.344 l -0.813 -0.813 c -0.094 -0.094 -0.25 -0.094 -0.344 0 l -0.469 0.5 c -0.257 -0.152 -0.516 -0.299 -0.813 -0.375 l 0 -0.625 c 0 -0.133 -0.117 -0.25 -0.25 -0.25 l -1.125 0 z m 0.563 3 c 0.552 0 1 0.448 1 1 0 0.552 -0.448 1 -1 1 -0.552 0 -1 -0.448 -1 -1 0 -0.552 0.448 -1 1 -1 z"/>
  <path d="m 3.438 4 c -0.133 0 -0.25 0.117 -0.25 0.25 l 0 0.625 c -0.296 0.076 -0.556 0.223 -0.813 0.375 l -0.469 -0.5 c -0.094 -0.094 -0.25 -0.094 -0.344 0 l -0.813 0.813 c -0.094 0.094 -0.094 0.25 0 0.344 l 0.5 0.469 c -0.152 0.257 -0.299 0.516 -0.375 0.813 l -0.625 0 c -0.133 0 -0.25 0.117 -0.25 0.25 l 0 1.125 c 0 0.133 0.117 0.25 0.25 0.25 l 0.625 0 c 0.076 0.296 0.223 0.556 0.375 0.813 l -0.5 0.469 c -0.094 0.094 -0.094 0.25 0 0.344 l 0.813 0.813 c 0.094 0.094 0.25 0.094 0.344 0 l 0.469 -0.5 c 0.257 0.152 0.516 0.299 0.813 0.375 l 0 0.625 c 0 0.133 0.117 0.25 0.25 0.25 l 1.125 0 c 0.133 0 0.25 -0.117 0.25 -0.25 l 0 -0.625 c 0.296 -0.076 0.556 -0.223 0.813 -0.375 l 0.469 0.5 c 0.094 0.094 0.25 0.094 0.344 0 l 0.813 -0.813 c 0.094 -0.094 0.094 -0.25 0 -0.344 l -0.5 -0.469 c 0.152 -0.257 0.299 -0.516 0.375 -0.813 l 0.625 0 c 0.133 0 0.25 -0.117 0.25 -0.25 l 0 -1.125 c 0 -0.133 -0.117 -0.25 -0.25 -0.25 l -0.625 0 c -0.076 -0.296 -0.223 -0.556 -0.375 -0.813 l 0.5 -0.469 c 0.094 -0.094 0.094 -0.25 0 -0.344 l -0.813 -0.813 c -0.094 -0.094 -0.25 -0.094 -0.344 0 l -0.469 0.5 c -0.257 -0.152 -0.516 -0.299 -0.813 -0.375 l 0 -0.625 c 0 -0.133 -0.117 -0.25 -0.25 -0.25 l -1.125 0 z m 0.563 3 c 0.552 0 1 0.448 1 1 0 0.552 -0.448 1 -1 1 -0.552 0 -1 -0.448 -1 -1 0 -0.552 0.448 -1 1 -1 z"/>
  <path d="m 9.85 6.01 c -0.037 -0.002 -0.055 0.015 -0.094 0.031 l -1.344 0.531 c -0.155 0.064 -0.221 0.282 -0.156 0.438 l 0.281 0.781 c -0.309 0.232 -0.524 0.479 -0.75 0.781 l -0.781 -0.344 c -0.155 -0.064 -0.373 0.032 -0.438 0.188 l -0.531 1.281 c -0.064 0.155 0.032 0.342 0.188 0.406 l 0.781 0.344 c -0.053 0.374 -0.054 0.742 0 1.125 l -0.781 0.344 c -0.155 0.064 -0.221 0.188 -0.156 0.344 l 0.5 1.344 c 0.064 0.155 0.282 0.221 0.438 0.156 l 0.781 -0.313 c 0.232 0.309 0.511 0.555 0.813 0.781 l -0.344 0.781 c -0.064 0.155 0.001 0.373 0.156 0.438 l 1.344 0.531 c 0.155 0.064 0.279 -0.032 0.344 -0.188 l 0.344 -0.781 c 0.374 0.053 0.742 0.055 1.125 0 l 0.313 0.781 c 0.064 0.155 0.282 0.221 0.438 0.156 l 1.281 -0.5 c 0.155 -0.064 0.252 -0.282 0.188 -0.438 l -0.344 -0.781 c 0.309 -0.232 0.555 -0.479 0.781 -0.781 l 0.813 0.313 c 0.155 0.064 0.311 -0.001 0.375 -0.156 l 0.563 -1.344 c 0.064 -0.155 -0.001 -0.279 -0.156 -0.344 l -0.813 -0.344 c 0.053 -0.374 0.054 -0.742 0 -1.125 l 0.781 -0.344 c 0.155 -0.064 0.252 -0.188 0.188 -0.344 l -0.563 -1.344 c -0.064 -0.155 -0.251 -0.252 -0.406 -0.188 l -0.781 0.344 c -0.232 -0.309 -0.479 -0.555 -0.781 -0.781 l 0.344 -0.844 c 0.064 -0.155 -0.032 -0.311 -0.188 -0.375 l -1.281 -0.531 c -0.155 -0.064 -0.373 0.032 -0.438 0.188 l -0.313 0.781 c -0.374 -0.053 -0.742 -0.055 -1.125 0 l -0.344 -0.781 c -0.048 -0.116 -0.139 -0.212 -0.25 -0.219 z m 1.156 3 c 1.105 0 2 0.895 2 2 0 1.105 -0.895 2 -2 2 -1.105 0 -2 -0.895 -2 -2 0 -1.105 0.895 -2 2 -2 z"/>
 </g>
</svg>
